X:1
T: Hopkin's Hornpipe
C:
R:Reel
Q: 232
K:Bb
M:4/4
L:1/8
|:F2|BA Bc BF dc|BA Bc BF dc|Bc de fd gf|ed cB AF GA|
BA Bc BF dc|BA Bc BF Bd|Bf dB AF GA|B2 B2 B2:|
|:AB|cB AB cd ec|dc Bc de fd|cB AB cd ed|cB AG Ff ec|
BA Bc BF dF|BA Bc BF dc|Bf dB AF GA|B2 B2 B2:|
